X: 1885
T: Arnold Kennedy's
R: jig
M: 6/8
K: Gmajor
Bc^c|:d^cd b2f|agf gdB|DGB edB|c3 cBc|D2F A2d|
[1fag f2e|d^cd ed=c|B3 Bc^c:|2 fag f2d|cAF DEF|G3 G2z||
|:G,B,D G2B|d3 d^cd|DGB edB|c3 cBc|D2F A2d|
[1 fag f2e|d^cd Ad=c|B3 B2z:|2 fag f2d|cAF DEF|G2z Bc^c||

